assets/ai/ai-dataverse-square.svg

<svg xmlns="http://www.w3.org/2000/svg" width="100%" height="100%" viewBox="-75.52 -43.52 599.04 599.04"><path d="M 48 32 C 21.5 32 0 53.5 0 80 L 0 432 C 0 458.5 21.5 480 48 480 L 400 480 C 426.5 480 448 458.5 448 432 L 448 80 C 448 53.5 426.5 32 400 32 L 48 32 z M 251.91406 96 C 268.59556 96 282.16797 109.57163 282.16797 126.25391 C 282.16797 138.08865 275.32435 148.32955 265.40039 153.29883 L 272.07617 188.47461 C 272.08627 188.47461 272.09256 188.47266 272.10156 188.47266 L 272.10352 188.47266 C 295.77553 188.47266 315.03516 207.73166 315.03516 231.40625 C 315.03516 255.07826 295.77554 274.33789 272.10352 274.33789 C 267.16195 274.33789 262.43496 273.45468 258.01367 271.91211 L 243.21875 296.96289 C 258.07334 309.31643 267.54883 327.92482 267.54883 348.70898 C 267.54883 385.81297 237.36289 416 200.25781 416 C 163.15273 416 132.96484 385.81297 132.96484 348.70898 C 132.96484 311.60499 163.15236 281.41797 200.25781 281.41797 C 212.04989 281.41797 223.13525 284.47556 232.7832 289.82617 L 246.83398 266.03516 C 236.15095 258.21777 229.17383 245.62755 229.17383 231.40625 C 229.17383 212.0848 242.00504 195.71636 259.5918 190.3457 L 253.1582 156.44727 C 252.74222 156.46497 252.3326 156.51172 251.91406 156.51172 C 235.23111 156.51172 221.65625 142.93846 221.65625 126.25586 C 221.65625 109.57182 235.23146 96 251.91406 96 z M 251.91406 106.51367 C 241.02722 106.51367 232.16992 115.3694 232.16992 126.25586 C 232.16992 137.14232 241.02722 145.99805 251.91406 145.99805 C 262.79941 145.99805 271.65625 137.14232 271.65625 126.25586 C 271.65625 115.3694 262.80087 106.51367 251.91406 106.51367 z M 272.10156 201.08984 C 255.3858 201.08984 241.78711 214.68902 241.78711 231.40625 C 241.78711 248.12202 255.38544 261.7207 272.10156 261.7207 C 288.81733 261.7207 302.41997 248.12239 302.41797 231.40625 C 302.41797 214.69048 288.81733 201.08984 272.10156 201.08984 z M 200.25781 294.0332 C 170.10862 294.0332 145.58008 318.56087 145.58008 348.70898 C 145.58008 378.85564 170.10862 403.38281 200.25781 403.38281 C 230.40702 403.38281 254.93359 378.85564 254.93359 348.70898 C 254.93359 318.56124 230.40702 294.0332 200.25781 294.0332 z"/></svg>

<svg xmlns="http://www.w3.org/2000/svg" width="100%" height="100%" viewBox="-75.52 -43.52 599.04 599.04"><path d="M48 32C21.5 32 0 53.5 0 80v352c0 26.5 21.5 48 48 48h352c26.5 0 48-21.5 48-48V80c0-26.5-21.5-48-48-48H48zm203.914 64c16.682 0 30.254 13.572 30.254 30.254 0 11.835-6.844 22.076-16.768 27.045l6.676 35.176.026-.002h.002c23.672 0 42.931 19.259 42.931 42.933 0 23.672-19.26 42.932-42.931 42.932-4.942 0-9.669-.883-14.09-2.426l-14.795 25.05c14.854 12.354 24.33 30.963 24.33 51.747 0 37.104-30.186 67.291-67.291 67.291s-67.293-30.187-67.293-67.291 30.187-67.291 67.293-67.291a66.859 66.859 0 0132.525 8.408l14.051-23.79c-10.683-7.818-17.66-20.408-17.66-34.63 0-19.321 12.831-35.69 30.418-41.06l-6.434-33.899c-.416.018-.825.065-1.244.065-16.683 0-30.258-13.574-30.258-30.256 0-16.684 13.575-30.256 30.258-30.256zm0 10.514c-10.887 0-19.744 8.855-19.744 19.742 0 10.886 8.857 19.742 19.744 19.742 10.885 0 19.742-8.856 19.742-19.742 0-10.887-8.855-19.742-19.742-19.742zm20.188 94.576c-16.716 0-30.315 13.599-30.315 30.316 0 16.716 13.598 30.315 30.315 30.315 16.715 0 30.318-13.599 30.316-30.315 0-16.716-13.6-30.316-30.316-30.316zm-71.844 92.943c-30.15 0-54.678 24.528-54.678 54.676 0 30.147 24.529 54.674 54.678 54.674 30.149 0 54.676-24.527 54.676-54.674 0-30.148-24.527-54.676-54.676-54.676z"/></svg>
